packages/components/icon/src/assets/icons/box.svg

<svg width="24" height="24" viewBox="0 0 24 24" fill="none" xmlns="http://www.w3.org/2000/svg">
<path fill-rule="evenodd" clip-rule="evenodd" d="M11.9143 22.0455H11.8058C11.8058 22.031 11.7913 22.0238 11.7624 22.0238L11.719 22.0021C11.6756 22.0021 11.6395 21.9876 11.6105 21.9587L2.54236 17.6632C2.38326 17.5909 2.2531 17.4788 2.15186 17.327C2.05062 17.1751 2 17.0052 2 16.8171V7.16322L2.02169 7.07645V7.03306L2.04339 6.98967V6.94628H2.06508V6.90289L2.13017 6.77273H2.15186V6.75103L2.17355 6.70764H2.19525V6.68595L2.21694 6.66426L2.26033 6.59917H2.28202C2.28202 6.58471 2.28926 6.57748 2.30372 6.57748L2.3905 6.4907H2.41219C2.41219 6.47624 2.41942 6.46901 2.43388 6.46901L2.45558 6.44731H2.47727V6.42562H2.52066V6.40393H2.54236L11.6105 2.10847C11.7552 2.03616 11.8926 2 12.0227 2C12.1529 2 12.2903 2.03616 12.4349 2.10847L21.5031 6.40393H21.5248V6.42562H21.5682V6.44731H21.5899L21.6116 6.46901C21.626 6.46901 21.6333 6.47624 21.6333 6.4907H21.655L21.7417 6.57748C21.7562 6.57748 21.7634 6.58471 21.7634 6.59917H21.7851L21.8285 6.66426L21.8502 6.68595V6.70764H21.8719L21.8936 6.75103V6.77273H21.9153L21.9804 6.90289V6.94628H22.0021V6.98967L22.0238 7.03306V7.07645L22.0455 7.16322V16.8171C22.0455 17.0052 21.9948 17.1751 21.8936 17.327C21.7924 17.4788 21.6622 17.5909 21.5031 17.6632L12.4349 21.9587C12.406 21.9876 12.3698 22.0021 12.3264 22.0021C12.3264 22.0165 12.312 22.0238 12.2831 22.0238C12.2541 22.0238 12.2397 22.031 12.2397 22.0455H12.1312L12.0878 22.0671H11.9576L11.9143 22.0455ZM5.18905 7.27169L7.35847 8.29132L14.1921 5.05888L12.0227 4.01756L5.18905 7.27169ZM9.59298 9.35434L12.0227 10.5041L18.8564 7.27169L16.4267 6.10021L9.59298 9.35434ZM3.90909 16.2097L11.0682 19.594V12.1746L3.90909 8.7686V16.2097ZM12.9773 12.1746V19.594L20.1364 16.2097V8.7686L12.9773 12.1746ZM8.79029 14.7996L5.40599 13.1942C5.23244 13.1219 5.09866 13.0062 5.00465 12.8471C4.91064 12.688 4.86364 12.5217 4.86364 12.3481C4.86364 12.189 4.89256 12.0517 4.95041 11.936C5.03719 11.7624 5.16012 11.6286 5.31921 11.5346C5.47831 11.4406 5.64463 11.3936 5.81818 11.3936C5.97727 11.3936 6.11467 11.4225 6.23037 11.4804L9.59297 13.0857C9.76653 13.1581 9.90031 13.2738 9.99432 13.4329C10.0883 13.5919 10.1353 13.7655 10.1353 13.9535C10.1353 14.1126 10.1064 14.25 10.0486 14.3657C9.97624 14.5248 9.86054 14.655 9.70145 14.7562C9.54235 14.8574 9.3688 14.9081 9.18079 14.9081C9.06508 14.9081 8.93492 14.8719 8.79029 14.7996Z" fill="currentColor"/>
</svg>

<svg viewBox="0 0 24 24" fill="none" xmlns="http://www.w3.org/2000/svg"><path fill-rule="evenodd" clip-rule="evenodd" d="M11.914 22.046h-.108c0-.015-.015-.022-.044-.022l-.043-.022a.147.147 0 0 1-.108-.043l-9.069-4.296a.921.921 0 0 1-.39-.336.899.899 0 0 1-.152-.51V7.163l.022-.087v-.043l.021-.043v-.044h.022v-.043l.065-.13h.022V6.75l.022-.043h.021v-.022l.022-.022.043-.065h.022c0-.014.007-.022.022-.022l.087-.086h.021c0-.015.007-.022.022-.022l.022-.022h.021v-.021h.044v-.022h.021l9.069-4.296A.924.924 0 0 1 12.023 2c.13 0 .267.036.412.108l9.068 4.296h.022v.022h.043v.021h.022l.022.022c.014 0 .021.007.021.022h.022l.087.086c.014 0 .021.008.021.022h.022l.043.065.022.022v.022h.022l.022.043v.022h.021l.065.13v.043h.022v.044l.022.043v.043l.021.087v9.654a.9.9 0 0 1-.151.51.921.921 0 0 1-.39.336l-9.07 4.296a.147.147 0 0 1-.108.043c0 .015-.014.022-.043.022-.029 0-.043.007-.043.021h-.109l-.043.022h-.13l-.044-.021ZM5.19 7.272l2.17 1.02 6.833-3.233-2.17-1.041L5.19 7.272Zm4.404 2.082 2.43 1.15 6.833-3.232-2.43-1.172-6.833 3.254ZM3.909 16.21l7.16 3.384v-7.42L3.908 8.77v7.44Zm9.068-4.035v7.419l7.16-3.384V8.769l-7.16 3.406ZM8.79 14.8l-3.384-1.606a.82.82 0 0 1-.401-.347.967.967 0 0 1-.141-.499.912.912 0 0 1 .455-.813.967.967 0 0 1 .5-.141c.158 0 .296.028.411.086l3.363 1.606a.82.82 0 0 1 .401.347c.094.159.141.332.141.52a.913.913 0 0 1-.434.803.951.951 0 0 1-.52.152.89.89 0 0 1-.39-.108Z" fill="currentColor"/></svg>
